icons/bookmark-slash-16.svg

<svg xmlns="http://www.w3.org/2000/svg" width="16" height="16" viewBox="0 0 16 16"><path d="M1.19 1.143L4.182 3.31l.014.01 8.486 6.145.014.01 2.994 2.168a.75.75 0 11-.88 1.214L13 11.547v2.703a.75.75 0 01-1.206.596L8 11.944l-3.794 2.902A.75.75 0 013 14.25V4.305L.31 2.357a.75.75 0 11.88-1.214zM4.5 5.39v7.341l3.044-2.328a.75.75 0 01.912 0l3.044 2.328V10.46zM5.865 1h5.385c.966 0 1.75.784 1.75 1.75v3.624a.75.75 0 01-1.5 0V2.75a.25.25 0 00-.25-.25H5.865a.75.75 0 010-1.5z"/></svg>

<svg xmlns="http://www.w3.org/2000/svg" width="16" height="16" viewBox="0 0 16 16">
  <defs/>
  <path d="M1.19,1.143 L4.182,3.31 C4.187,3.313 4.191,3.317 4.196,3.32 L12.682,9.465 C12.687,9.468 12.691,9.472 12.696,9.475 L15.69,11.643 C15.915,11.797 16.04,12.061 16.014,12.333 C15.988,12.605 15.817,12.841 15.567,12.95 C15.316,13.059 15.026,13.023 14.81,12.857 L13,11.547 L13,14.25 C13,14.536 12.838,14.796 12.582,14.923 C12.326,15.049 12.021,15.02 11.794,14.846 L8,11.944 L4.206,14.846 C3.979,15.02 3.674,15.049 3.418,14.923 C3.162,14.796 3,14.536 3,14.25 L3,4.305 L0.31,2.357 C0.085,2.203 -0.04,1.939 -0.014,1.667 C0.012,1.395 0.183,1.159 0.433,1.05 C0.684,0.941 0.974,0.977 1.19,1.143 Z M4.5,5.39 L4.5,12.731 L7.544,10.403 C7.813,10.197 8.187,10.197 8.456,10.403 L11.5,12.731 L11.5,10.46 Z M5.865,1 L11.25,1 C12.216,1 13,1.784 13,2.75 L13,6.374 C13,6.788 12.664,7.124 12.25,7.124 C11.836,7.124 11.5,6.788 11.5,6.374 L11.5,2.75 C11.5,2.612 11.388,2.5 11.25,2.5 L5.865,2.5 C5.451,2.5 5.115,2.164 5.115,1.75 C5.115,1.336 5.451,1 5.865,1 Z"/>
</svg>
